X:1022
T:Untitled
C:anon.
Z:Transcribed by Bryan Creer
F:http://abc.musicaviva.com/tunes/anon/untitled-bryan/untitled-bryan-1.abc
%Posted June 10th 2000 at abcusers by Bryan Creer during a discussion
%about modes.
M:4/4
L:1/4
K:Dm
|:dc|B2G2A2^F2|GA G^F D2dc|B2G2AB A^F|G6dc|
B2G2A2^F2|GA G^F D2DE|FG FE DC DE|D6:|
|:DE|FG FE DC DE|FG AB A2GA|Bc dc BA Bc|dc d_e d2dc|
B2G2A2^F2|GA G^F D2DE|FG FE DC DE|D6:|
W:
W:
W:  From Musica Viva - http://www.musicaviva.com
W:  the Internet center for free sheet music downloads.

